packages/xm_dkfz_net_site/Resources/Public/Icons/download.svg

<svg width="100%" height="100%" viewBox="0 0 24 24" version="1.1" xmlns="http://www.w3.org/2000/svg" xmlns:xlink="http://www.w3.org/1999/xlink" xml:space="preserve" xmlns:serif="http://www.serif.com/" style="fill-rule:evenodd;clip-rule:evenodd;stroke-linejoin:round;stroke-miterlimit:2;">
    <path d="M21.6,15L21.6,19C21.6,19.552 21.063,20 20.4,20C20.4,20 3.6,20 3.6,20C2.937,20 2.4,19.552 2.4,19C2.4,19 2.4,15 2.4,15C2.4,14.448 1.862,14 1.2,14C0.538,14 0,14.448 0,15L0,19C0,20.657 1.612,22 3.6,22L20.4,22C22.388,22 24,20.657 24,19L24,15C24,14.448 23.462,14 22.8,14C22.138,14 21.6,14.448 21.6,15ZM10.8,12.586L10.8,3C10.8,2.448 11.338,2 12,2C12.662,2 13.2,2.448 13.2,3L13.2,12.586L17.151,9.293C17.62,8.903 18.38,8.903 18.849,9.293C19.317,9.683 19.317,10.317 18.849,10.707L12.849,15.707C12.704,15.827 12.533,15.91 12.35,15.957L12.347,15.958C12.246,15.983 12.139,15.998 12.029,16L12,16L11.971,16C11.861,15.998 11.754,15.983 11.653,15.958L11.65,15.957C11.467,15.91 11.296,15.827 11.151,15.707L5.151,10.707C4.683,10.317 4.683,9.683 5.151,9.293C5.62,8.903 6.38,8.903 6.849,9.293L10.8,12.586Z"/>
</svg>

<svg xmlns="http://www.w3.org/2000/svg" xml:space="preserve" style="fill-rule:evenodd;clip-rule:evenodd;stroke-linejoin:round;stroke-miterlimit:2" viewBox="0 0 24 24"><path d="M21.6 15v4c0 .55-.54 1-1.2 1H3.6c-.66 0-1.2-.45-1.2-1v-4c0-.55-.54-1-1.2-1-.66 0-1.2.45-1.2 1v4c0 1.66 1.61 3 3.6 3h16.8c1.99 0 3.6-1.34 3.6-3v-4c0-.55-.54-1-1.2-1-.66 0-1.2.45-1.2 1Zm-10.8-2.41V3c0-.55.54-1 1.2-1 .66 0 1.2.45 1.2 1v9.59l3.95-3.3a1.38 1.38 0 0 1 1.7 0 .89.89 0 0 1 0 1.42l-6 5c-.15.12-.32.2-.5.25-.1.02-.21.04-.32.04h-.06a1.28 1.28 0 0 1-.82-.3l-6-5a.89.89 0 0 1 0-1.4 1.38 1.38 0 0 1 1.7 0l3.95 3.29Z"/></svg>
